!!!COM: Gaspar van Weerbeke
!!!CDT: ~1450-~1517
!!!PTL: Lamentatio Ieremiae prophetae
!!!OTL: Sabato sancto. Lectio tertia
!!!AGN: Motet; Lamentation
!!!SCT: Gas0501f
!!!SCA: Gas0501f
!!!voices: 4
**kern	**text	**kern	**text	**kern	**text	**kern	**text
*part4	*part4	*part3	*part3	*part2	*part2	*part1	*part1
*staff4	*staff4	*staff3	*staff3	*staff2	*staff2	*staff1	*staff1
*I"Bassus	*	*I"Tenor	*	*I"Altus	*	*I"Superius	*
*I'B	*	*I'T	*	*I'A	*	*I'S	*
*clefF4	*	*clefGv2	*	*clefGv2	*	*clefG2	*
*k[b-]	*	*k[b-]	*	*k[b-]	*	*k[b-]	*
*M2/2	*	*M2/2	*	*M2/2	*	*M2/2	*
*met(C|)	*	*met(C|)	*	*met(C|)	*	*met(C|)	*
=1	=1	=1	=1	=1	=1	=1	=1
!!LO:TX:a:t=[Sabato sancto. Primo nocturno]\n[Lectio tertia]
*	*	*lig	*	*	*	*	*
1A	In-	1D	In-	[1A	In-	[1d	In-
=2	=2	=2	=2	=2	=2	=2	=2
*lig	*	*	*	*	*	*	*
2D	.	1F	.	1A]	.	1d]	.
2F	.	.	.	.	.	.	.
*Xlig	*	*Xlig	*	*	*	*	*
=3	=3	=3	=3	=3	=3	=3	=3
*	*	*	*	*	*	*lig	*
1E	.	1G	.	2.Bni	.	1e	.
.	.	.	.	4c	.	.	.
=4	=4	=4	=4	=4	=4	=4	=4
*lig	*	*	*	*	*	*	*
1D	.	1A	.	1d	.	1f	.
*	*	*	*	*	*	*Xlig	*
=5	=5	=5	=5	=5	=5	=5	=5
[1d	.	[1G	.	[1B-y	.	[1g	.
=6	=6	=6	=6	=6	=6	=6	=6
2d]	.	2G]	.	2B-]	.	2g]	.
*Xlig	*	*	*	*	*	*	*
2d	-ci-	2G	-ci-	2B-y	ci-	2g	ci-
=7	=7	=7	=7	=7	=7	=7	=7
[1d	pit	[1G	pit	[1B-y	pit	[1g	pit
=8	=8	=8	=8	=8	=8	=8	=8
1d]	.	1G]	.	1B-]	.	1g]	.
!!LO:LB:g=original
=9	=9	=9	=9	=9	=9	=9	=9
1r	.	1r	.	1r	.	1r	.
=10	=10	=10	=10	=10	=10	=10	=10
1B-y	-o-	1G	-o-	1d	-o-	1g	-o-
=11	=11	=11	=11	=11	=11	=11	=11
*	*	*lig	*	*	*	*lig	*
1c	-ra-	1F	-ra-	1f	-ra-	1a	-ra-
=12	=12	=12	=12	=12	=12	=12	=12
2.B-y	.	[1G	.	[1d	.	[1b-y	.
4A	.	.	.	.	.	.	.
=13	=13	=13	=13	=13	=13	=13	=13
*lig	*	*	*	*	*	*	*
2G	.	2G]	.	2d]	.	2b-]	.
*	*	*Xlig	*	*	*	*Xlig	*
*	*	*	*	*lig	*	*	*
2F	.	2A	.	2f	.	2a	.
*Xlig	*	*	*	*	*	*	*
=14	=14	=14	=14	=14	=14	=14	=14
1G	.	1B-y	.	2e-i	.	1g	.
*	*	*	*	*Xlig	*	*	*
.	.	.	.	[2d	.	.	.
!!LO:LB:g=original
=15	=15	=15	=15	=15	=15	=15	=15
*lig	*	*	*	*	*	*lig	*
1D	.	1A	.	1d]	.	1f#i	.
=16	=16	=16	=16	=16	=16	=16	=16
[1d	.	[1G	.	[1B-y	.	[1g	.
=17	=17	=17	=17	=17	=17	=17	=17
2d]	.	2G]	.	2B-]	.	2g]	.
*Xlig	*	*	*	*	*	*Xlig	*
2d	-ti-	2G	-ti-	2B-y	-ti-	2g	-ti-
=18	=18	=18	=18	=18	=18	=18	=18
[1d	o	[1G	o	[1B-y	o	[1g	o
=19	=19	=19	=19	=19	=19	=19	=19
1d]	.	1G]	.	1B-]	.	1g]	.
=20	=20	=20	=20	=20	=20	=20	=20
1r	.	1r	.	1r	.	1r	.
!!LO:LB:g=original
=21	=21	=21	=21	=21	=21	=21	=21
1B-y	-Ie-	1G	-Ie-	1d	-Ie-	1g	-Ie-
=22	=22	=22	=22	=22	=22	=22	=22
1G	-re-	1G	-re-	1d	-re-	1g	-re-
=23	=23	=23	=23	=23	=23	=23	=23
[1D	mi-	[1A	mi-	[1d	mi-	[1f	mi-
=24	=24	=24	=24	=24	=24	=24	=24
1D]	.	1A]	.	1d]	.	1f]	.
=25	=25	=25	=25	=25	=25	=25	=25
1G	.	1B-y	.	1e-i	.	1g	.
=26	=26	=26	=26	=26	=26	=26	=26
[1F	e	[1c	e	[1f	e	[1a	e
=27	=27	=27	=27	=27	=27	=27	=27
1F]	.	1c]	.	1f]	.	1a]	.
!!LO:PB:g=original
=28	=28	=28	=28	=28	=28	=28	=28
1G	.	1B-y	.	[1d	.	1g	.
=29	=29	=29	=29	=29	=29	=29	=29
[1D	.	[1A	.	1d_	.	[1f	.
=30	=30	=30	=30	=30	=30	=30	=30
1D]	.	1A]	.	1d]	.	1f]	.
=31	=31	=31	=31	=31	=31	=31	=31
1r	.	1r	.	1r	.	1r	.
=32	=32	=32	=32	=32	=32	=32	=32
2.G	-pro-	[1G	-pro-	1d	-pro-	[1g	-pro-
4A	.	.	.	.	.	.	.
=33	=33	=33	=33	=33	=33	=33	=33
*lig	*	*	*	*lig	*	*	*
2B-y	.	2G]	.	2e	.	2g]	.
2c	.	2F	.	2f	.	2a	.
*Xlig	*	*	*	*Xlig	*	*	*
!!LO:LB:g=original
=34	=34	=34	=34	=34	=34	=34	=34
1B-y	.	1G	.	2.d	.	1b-y	.
.	.	.	.	4e	.	.	.
=35	=35	=35	=35	=35	=35	=35	=35
[1F	phe-	[1A	phe-	1f	-phe-	[1ay	phe-
=36	=36	=36	=36	=36	=36	=36	=36
*	*	*	*	*lig	*	*	*
1F]	.	1A]	.	2c	.	1a]	.
.	.	.	.	2d	.	.	.
*	*	*	*	*Xlig	*	*	*
=37	=37	=37	=37	=37	=37	=37	=37
*lig	*	*lig	*	*	*	*	*
1E-X	.	1B-y	.	1e-X	.	1g	.
=38	=38	=38	=38	=38	=38	=38	=38
*	*	*	*	*	*	*lig	*
1F	.	1A	.	2.c	.	2f	.
.	.	.	.	.	.	2a	.
*	*	*	*	*	*	*Xlig	*
.	.	.	.	4d	.	.	.
*Xlig	*	*Xlig	*	*	*	*	*
=39	=39	=39	=39	=39	=39	=39	=39
*lig	*	*lig	*	*	*	*	*
2E-X	.	2B-y	.	2e-i	.	2g	.
2F	.	2A	.	[2c	.	2f	.
*Xlig	*	*Xlig	*	*	*	*	*
=40	=40	=40	=40	=40	=40	=40	=40
1C	.	1G	.	1c]	.	1e	.
!!LO:LB:g=original
=41	=41	=41	=41	=41	=41	=41	=41
[1c	te.	[1F	te.	[1A	te.	[1f	te.
=42	=42	=42	=42	=42	=42	=42	=42
1c]	.	1F]	.	1A]	.	1f]	.
=43	=43	=43	=43	=43	=43	=43	=43
1r	.	1r	.	1r	.	1r	.
=44	=44	=44	=44	=44	=44	=44	=44
*	*	*	*	*lig	*	*	*
1B-y	-Re-	[1G	Re-	1G	-Re-	[1d	Re-
=45	=45	=45	=45	=45	=45	=45	=45
1G	.	1G]	.	1B-y	.	1d]	.
*	*	*	*	*Xlig	*	*	*
=46	=46	=46	=46	=46	=46	=46	=46
[1D	.	[1A	.	[1d	.	[1f	.
=47	=47	=47	=47	=47	=47	=47	=47
1D]	.	1A]	.	1d]	.	1f]	.
!!LO:LB:g=original
=48	=48	=48	=48	=48	=48	=48	=48
1d	-cor-	1G	cor-	1B-y	-cor-	1g	-cor-
=49	=49	=49	=49	=49	=49	=49	=49
1d	-da-	1G	-da-	1B-y	-da-	1g	-da-
=50	=50	=50	=50	=50	=50	=50	=50
[1B-y	re,	[1G	re,	[1d	re,	[1g	re,
=51	=51	=51	=51	=51	=51	=51	=51
1B-]	.	1G]	.	1d]	.	1g]	.
=52	=52	=52	=52	=52	=52	=52	=52
1r	.	1r	.	1r	.	1r	.
=53	=53	=53	=53	=53	=53	=53	=53
*	*	*lig	*	*	*	*	*
[1c	Do-	1F	-Do-	1f	-Do-	[1a	Do-
=54	=54	=54	=54	=54	=54	=54	=54
*	*	*	*	*lig	*	*	*
1c]	.	1A	.	2e	.	1a]	.
.	.	.	.	2f	.	.	.
*	*	*	*	*Xlig	*	*	*
*	*	*Xlig	*	*	*	*	*
!!LO:PB:g=original
=55	=55	=55	=55	=55	=55	=55	=55
1d	.	1G	.	2g	.	1b-y	.
.	.	.	.	[2d	.	.	.
=56	=56	=56	=56	=56	=56	=56	=56
*lig	*	*lig	*	*	*	*	*
2D	.	2F	.	2d]	.	2a	.
2E-i	.	2G	.	4.B-y	.	[2g	.
.	.	.	.	8c	.	.	.
*Xlig	*	*Xlig	*	*	*	*	*
=57	=57	=57	=57	=57	=57	=57	=57
1D	.	1A	.	1d	.	2g]	.
.	.	.	.	.	.	2f#i	.
=58	=58	=58	=58	=58	=58	=58	=58
1B-y	-mi-	1G	-mi-	1d	-mi-	1g	-mi-
=59	=59	=59	=59	=59	=59	=59	=59
[1B-y	ne,	[1G	ne,	[1d	ne,	[1g	ne,
=60	=60	=60	=60	=60	=60	=60	=60
1B-]	.	1G]	.	1d]	.	1g]	.
!!LO:LB:g=original
=61	=61	=61	=61	=61	=61	=61	=61
1r	.	1r	.	1r	.	1r	.
=62	=62	=62	=62	=62	=62	=62	=62
1B-y	-quid	1G	-quid	1d	-quid	1g	-quid
=63	=63	=63	=63	=63	=63	=63	=63
*	*	*lig	*	*	*	*lig	*
1G	ac-	1G	ac-	[1d	ac-	1g	ac-
=64	=64	=64	=64	=64	=64	=64	=64
1D	.	1A	.	1d]	.	1f	.
*	*	*Xlig	*	*	*	*Xlig	*
=65	=65	=65	=65	=65	=65	=65	=65
1G	-ci-	1B-y	-ci-	1e	ci-	1g	-ci-
=66	=66	=66	=66	=66	=66	=66	=66
[1F	de-	[1cy	de-	[1f	de-	[1a	de-
!!LO:LB:g=original
=67	=67	=67	=67	=67	=67	=67	=67
1F]	.	1c]	.	1f]	.	1a]	.
=68	=68	=68	=68	=68	=68	=68	=68
1G	-rit	1B-y	-rit	1d	-rit	1g	-rit
=69	=69	=69	=69	=69	=69	=69	=69
*	*	*lig	*	*	*	*	*
*	*edit	*	*	*	*	*	*edit
2A	no-	2A	no-	2c	.	2f	no-
*	*	*	*	*	*edit	*	*
2c	.	2F	.	[2f	no-	2a	.
*	*	*Xlig	*	*	*	*	*
=70	=70	=70	=70	=70	=70	=70	=70
*	*	*lig	*	*	*	*lig	*
1B-y	.	1G	-bis,	2f]	.	1g	-bis,
.	.	.	.	2e	.	.	.
=71	=71	=71	=71	=71	=71	=71	=71
1c	-bis,	1F	.	1f	-bis,	1a	.
*	*	*Xlig	*	*	*	*Xlig	*
=72	=72	=72	=72	=72	=72	=72	=72
1r	.	1r	.	1r	.	1r	.
!!LO:LB:g=original
=73	=73	=73	=73	=73	=73	=73	=73
*	*Xedit	*	*edit	*	*Xedit	*	*Xedit
2.B-y	no-	[1G	no-	1d	no-	[1b-y	no-
4A	.	.	.	.	.	.	.
=74	=74	=74	=74	=74	=74	=74	=74
2G	.	2G]	.	2B-y	.	2b-]	.
2F	.	2A	.	2d	.	2a	.
=75	=75	=75	=75	=75	=75	=75	=75
*lig	*	*lig	*	*lig	*	*lig	*
2E-X	.	2B-y	.	2e-X	.	2g	.
2F	.	2A	.	2c	.	2f	.
*Xlig	*	*Xlig	*	*Xlig	*	*Xlig	*
=76	=76	=76	=76	=76	=76	=76	=76
*	*	*col	*	*	*	*	*
1C	.	1G	.	1c	.	1e	.
=77	=77	=77	=77	=77	=77	=77	=77
[1c	bis,	[1F	bis,	[1A	bis,	[1f	bis,
=78	=78	=78	=78	=78	=78	=78	=78
1c]	.	1F]	.	1A]	.	1f]	.
*	*	*Xcol	*	*	*	*	*
!!LO:PB:g=original
=79	=79	=79	=79	=79	=79	=79	=79
1r	.	1r	.	1r	.	1r	.
=80	=80	=80	=80	=80	=80	=80	=80
*	*	*lig	*	*lig	*	*lig	*
*	*	*	*Xedit	*	*	*	*
1c	-in-	1F	-in-	1c	-in-	1a	-in-
=81	=81	=81	=81	=81	=81	=81	=81
1B-y	.	1G	.	1d	.	1b-y	.
*	*	*Xlig	*	*Xlig	*	*Xlig	*
=82	=82	=82	=82	=82	=82	=82	=82
1F	.	1A	.	1f	.	1a	.
=83	=83	=83	=83	=83	=83	=83	=83
*lig	*	*lig	*	*lig	*	*lig	*
2G	-tu-	2B-y	-tu-	2e	-tu-	2g	-tu-
[2F	.	[2c	.	[2f	.	[2a	.
=84	=84	=84	=84	=84	=84	=84	=84
4F]	.	4c]	.	4f]	.	4a]	.
*Xlig	*	*Xlig	*	*Xlig	*	*Xlig	*
4G	.	4B-y	.	4e	.	4g	.
4D	.	4A	.	4d	.	4f	.
4E	.	4G	.	4c	.	4e	.
!!LO:LB:g=original
=85	=85	=85	=85	=85	=85	=85	=85
1D	.	1A	.	1d	.	1f	.
=86	=86	=86	=86	=86	=86	=86	=86
1B-y	-e-	1G	-e-	1d	-e-	1g	-e-
=87	=87	=87	=87	=87	=87	=87	=87
1B-y	-re	1G	-re	1d	-re	1g	-re
=88	=88	=88	=88	=88	=88	=88	=88
1r	.	1r	.	1r	.	1r	.
=89	=89	=89	=89	=89	=89	=89	=89
1G	et	1B-y	et	1d	et	1g	et
=90	=90	=90	=90	=90	=90	=90	=90
*lig	*	*	*	*	*	*lig	*
1D	re-	1A	re-	[1d	re-	1f	re-
=91	=91	=91	=91	=91	=91	=91	=91
[1B-y	.	[1G	.	1d]	.	[1g	.
!!LO:LB:g=original
=92	=92	=92	=92	=92	=92	=92	=92
2B-]	.	2G]	.	2d	spi-	2g]	.
*Xlig	*	*	*	*	*	*Xlig	*
2B-y	-spi-	2G	-spi-	2d	-ce	2g	-spi-
=93	=93	=93	=93	=93	=93	=93	=93
1B-y	-ce	1G	-ce	1d	ob-	1g	-ce
=94	=94	=94	=94	=94	=94	=94	=94
1G	ob-	1G	ob-	[1d	-pro-	1g	ob-
=95	=95	=95	=95	=95	=95	=95	=95
*	*	*lig	*	*	*	*lig	*
1B-y	-pro-	1G	-pro-	1d]	.	1g	-pro-
=96	=96	=96	=96	=96	=96	=96	=96
1F	.	1A	.	1c	.	1f	.
*	*	*Xlig	*	*	*	*Xlig	*
=97	=97	=97	=97	=97	=97	=97	=97
2G	.	2G	.	2B-y	.	2e-i	.
*	*	*	*	*lig	*	*	*
[2D	.	[2F	.	[2A	.	[2d	.
!!LO:LB:g=original
=98	=98	=98	=98	=98	=98	=98	=98
2D]	.	2F]	.	2A]	.	2d]	.
*lig	*	*	*	*	*	*	*
2E-j	.	2E-j	.	[2G	.	[2c	.
=99	=99	=99	=99	=99	=99	=99	=99
2F	.	1D	-bri-	2G]	.	2c]	.
*	*	*	*	*Xlig	*	*	*
*Xlig	*	*	*	*	*	*	*
2D	-bri-	.	.	2F	-bri-	2Bni	-bri-
=100	=100	=100	=100	=100	=100	=100	=100
*lig	*	*	*	*	*	*	*
1E	-um	[1C	um	[1G	um	[1c	um
=101	=101	=101	=101	=101	=101	=101	=101
1G	.	1C]	.	1G]	.	1c]	.
*Xlig	*	*	*	*	*	*	*
=102	=102	=102	=102	=102	=102	=102	=102
1r	.	1r	.	1r	.	1r	.
=103	=103	=103	=103	=103	=103	=103	=103
[1d	no-	[1D	-no-	1d	-no-	[1f	-no-
!!LO:PB:g=original
=104	=104	=104	=104	=104	=104	=104	=104
*	*	*	*	*lig	*	*	*
2d]	.	2D]	.	2f	.	2f]	.
2c	.	2E	.	2e	.	2g	.
*	*	*	*	*Xlig	*	*	*
=105	=105	=105	=105	=105	=105	=105	=105
*	*	*lig	*	*	*	*lig	*
1A	.	1F	.	1c	.	1a	.
=106	=106	=106	=106	=106	=106	=106	=106
1G	.	1G	.	1B-y	.	1b-y	.
*	*	*Xlig	*	*	*	*Xlig	*
=107	=107	=107	=107	=107	=107	=107	=107
2F	.	2F	.	2c	.	2a	.
[2E-X	.	[2B-y	.	[2e-i	.	[2g	.
=108	=108	=108	=108	=108	=108	=108	=108
2E-]	.	2B-]	.	2e-]	.	2g]	.
2F	.	2A	.	2c	.	2f	.
=109	=109	=109	=109	=109	=109	=109	=109
*	*	*lig	*	*	*	*	*
1C	.	1G	.	1c	.	1e	.
!!LO:LB:g=original
=110	=110	=110	=110	=110	=110	=110	=110
[1c	strum.	[1F	strum.	[1A	strum.	[1f	strum.
*	*	*Xlig	*	*	*	*	*
=111	=111	=111	=111	=111	=111	=111	=111
1c]	.	1F]	.	1A]	.	1f]	.
=112	=112	=112	=112	=112	=112	=112	=112
1r	.	1r	.	1r	.	1r	.
=113	=113	=113	=113	=113	=113	=113	=113
[1G	He-	[1B-y	He-	[1d	He-	[1d	He-
=114	=114	=114	=114	=114	=114	=114	=114
1G]	.	1B-]	.	1d]	.	1d]	.
=115	=115	=115	=115	=115	=115	=115	=115
*lig	*	*lig	*	*	*	*lig	*
1D	-re-	1A	-re-	[1d	re-	1f	-re-
=116	=116	=116	=116	=116	=116	=116	=116
1B-y	.	1G	.	1d]	.	1g	.
*Xlig	*	*Xlig	*	*	*	*Xlig	*
!!LO:LB:g=original
=117	=117	=117	=117	=117	=117	=117	=117
2B-y	-di-	2G	-di-	2d	-di-	2g	-di-
2B-y	-tas	2G	-tas	2d	-tas	2g	-tas
=118	=118	=118	=118	=118	=118	=118	=118
1B-y	no-	1G	no-	1d	no-	1g	no-
=119	=119	=119	=119	=119	=119	=119	=119
[1G	stra	[1G	stra	[1d	stra	[1g	stra
=120	=120	=120	=120	=120	=120	=120	=120
1G]	.	1G]	.	1d]	.	1g]	.
=121	=121	=121	=121	=121	=121	=121	=121
1r	.	1r	.	1r	.	1r	.
=122	=122	=122	=122	=122	=122	=122	=122
[1E-X	-ver-	[1G	-ver-	[1e-X	-ver-	[1g	-ver-
=123	=123	=123	=123	=123	=123	=123	=123
2E-]	.	2G]	.	2e-]	.	2g]	.
2E-i	-sa	2G	-sa	2c	-sa	2g	-sa
!!LO:LB:g=original
=124	=124	=124	=124	=124	=124	=124	=124
1E-X	est	1G	est	1c	est	1g	est
=125	=125	=125	=125	=125	=125	=125	=125
[1D	.	[1A	.	[1d	.	[1f	.
=126	=126	=126	=126	=126	=126	=126	=126
1D]	.	1A]	.	1d]	.	1f]	.
=127	=127	=127	=127	=127	=127	=127	=127
1r	.	1r	.	1r	.	1r	.
=128	=128	=128	=128	=128	=128	=128	=128
*lig	*	*	*	*	*	*	*
1G	ad	1B-y	ad	2.d	ad	1g	ad
.	.	.	.	4e	.	.	.
=129	=129	=129	=129	=129	=129	=129	=129
[1F	.	[1c	.	[1f	.	[1a	.
=130	=130	=130	=130	=130	=130	=130	=130
1F]	.	1c]	.	1f]	.	1a]	.
*Xlig	*	*	*	*	*	*	*
!!LO:PB:g=original
=131	=131	=131	=131	=131	=131	=131	=131
1G	a-	1B-y	a-	1d	a-	1g	a-
=132	=132	=132	=132	=132	=132	=132	=132
2D	-li-	2A	-li-	2d	-li-	2f	-li-
[2E-X	-e-	[2B-y	-e-	[2e-i	-e-	[2g	-e-
=133	=133	=133	=133	=133	=133	=133	=133
4E-]	.	4B-]	.	4e-]	.	4g]	.
4F	.	4A	.	4d	.	4f	.
4C	.	4G	.	4c	.	4e	.
4D	.	4F	.	4B-y	.	4d	.
=134	=134	=134	=134	=134	=134	=134	=134
1C	.	1G	.	1c	.	1e	.
=135	=135	=135	=135	=135	=135	=135	=135
[1c	nos,	[1F	nos,	[1A	nos,	[1f	nos,
=136	=136	=136	=136	=136	=136	=136	=136
1c]	.	1F]	.	1A]	.	1f]	.
!!LO:LB:g=original
=137	=137	=137	=137	=137	=137	=137	=137
1r	.	1r	.	1r	.	1r	.
=138	=138	=138	=138	=138	=138	=138	=138
*	*	*	*	*	*	*col	*
*	*	*col	*	*	*	*	*
1A	-do-	1F	-do-	1c	-do-	1a	-do-
=139	=139	=139	=139	=139	=139	=139	=139
*lig	*	*	*	*	*	*	*
1G	.	1G	.	1B-y	.	1b-y	.
*	*	*Xcol	*	*	*	*Xcol	*
=140	=140	=140	=140	=140	=140	=140	=140
1F	.	1A	.	1c	.	1a	.
*Xlig	*	*	*	*	*	*	*
=141	=141	=141	=141	=141	=141	=141	=141
*	*	*	*	*	*	*lig	*
2G	.	2B-y	.	2e	.	2g	.
[2F	.	[2c	.	[2f	.	[2a	.
=142	=142	=142	=142	=142	=142	=142	=142
2F]	.	2c]	.	2f]	.	4a]	.
*	*	*	*	*	*	*Xlig	*
.	.	.	.	.	.	4g	.
2G	.	2B-y	.	[2d	.	[2g	.
!!LO:LB:g=original
=143	=143	=143	=143	=143	=143	=143	=143
1D	-mus	1A	-mus	2d]	.	2g]	.
.	.	.	.	2d	-mus	2f#i	-mus
=144	=144	=144	=144	=144	=144	=144	=144
1B-y	no-	1G	no-	1d	no-	1g	no-
=145	=145	=145	=145	=145	=145	=145	=145
[1G	stre	[1G	stre	[1d	stre	[1g	stre
=146	=146	=146	=146	=146	=146	=146	=146
1G]	.	1G]	.	1d]	.	1g]	.
=147	=147	=147	=147	=147	=147	=147	=147
1r	.	1r	.	1r	.	1r	.
=148	=148	=148	=148	=148	=148	=148	=148
1B-y	-ad	1G	-ad	1d	-ad	[1g	-ad
!!LO:LB:g=original
=149	=149	=149	=149	=149	=149	=149	=149
2G	.	2B-y	.	2B-y	.	2g]	.
*	*	*lig	*	*	*	*	*
[2D	.	[2d	.	[2A	.	[2f	.
=150	=150	=150	=150	=150	=150	=150	=150
2D]	.	2d]	.	2A]	.	2f]	.
2E	.	[2c	.	2G	.	2e	.
=151	=151	=151	=151	=151	=151	=151	=151
1G	.	2c]	.	2.B-y	.	1d	.
*	*	*Xlig	*	*	*	*	*
.	.	2Biy	.	.	.	.	.
.	.	.	.	4G	.	.	.
=152	=152	=152	=152	=152	=152	=152	=152
1C	.	1c	.	1G	.	1c	.
=153	=153	=153	=153	=153	=153	=153	=153
1r	.	1r	.	1r	.	1r	.
=154	=154	=154	=154	=154	=154	=154	=154
*lig	*	*lig	*	*	*	*lig	*
1D	ex-	1A	ex-	[1d	ex-	1f	ex-
=155	=155	=155	=155	=155	=155	=155	=155
1G	.	1B-y	.	1d]	.	1g	.
*Xlig	*	*Xlig	*	*	*	*Xlig	*
!!LO:PB:g=original
=156	=156	=156	=156	=156	=156	=156	=156
*lig	*	*lig	*	*	*	*lig	*
1F	-tra-	1c	-tra-	1f	tra-	1a	-tra-
=157	=157	=157	=157	=157	=157	=157	=157
[1G	.	1B-y	.	1d	.	[1b-y	.
=158	=158	=158	=158	=158	=158	=158	=158
*	*	*Xlig	*	*lig	*	*	*
2G]	.	2.d	.	2B-y	.	2b-]	.
*Xlig	*	*	*	*	*	*Xlig	*
2D	.	.	.	2f	.	2a	.
.	.	4c	.	.	.	.	.
*	*	*	*	*Xlig	*	*	*
=159	=159	=159	=159	=159	=159	=159	=159
1E-X	.	1B-y	.	1e-X	.	1g	.
=160	=160	=160	=160	=160	=160	=160	=160
2F	.	2A	.	2c	.	2f	.
[2C	.	[2G	.	[2c	.	[2e	.
=161	=161	=161	=161	=161	=161	=161	=161
2C]	.	2G]	.	2c]	.	2e]	.
2c	-ne-	2F	-ne-	2A	-ne-	2f	-ne-
!!LO:LB:g=original
=162	=162	=162	=162	=162	=162	=162	=162
[1c	os.	[1F	os.	[1A	os.	[1f	os.
=163	=163	=163	=163	=163	=163	=163	=163
1c]	.	1F]	.	1A]	.	1f]	.
=164	=164	=164	=164	=164	=164	=164	=164
1r	.	1r	.	1r	.	1r	.
.	.	.	.	.	.	.	.
=165	=165	=165	=165	=165	=165	=165	=165
[1G	Pu-	[1B-y	Pu-	[1d	Pu-	[1d	Pu-
=166	=166	=166	=166	=166	=166	=166	=166
1G]	.	1B-]	.	1d_	.	1d]	.
=167	=167	=167	=167	=167	=167	=167	=167
1D	-pil-	1A	-pil-	1d]	.	1f	-pil-
!!LO:LB:g=original
=168	=168	=168	=168	=168	=168	=168	=168
*lig	*	*lig	*	*lig	*	*lig	*
2E-i	.	2G	.	2c	-pil-	2g	.
2D	.	2F	.	2d	.	[2a	.
*Xlig	*	*Xlig	*	*Xlig	*	*	*
=169	=169	=169	=169	=169	=169	=169	=169
*	*	*lig	*	*lig	*	*	*
1E-i	.	1G	.	2B-y	.	4a]	.
*Xlig	*	*	*	*	*	*Xlig	*
.	.	.	.	.	.	4g	.
.	.	.	.	2c	.	[2g	.
*	*	*	*	*Xlig	*	*	*
=170	=170	=170	=170	=170	=170	=170	=170
1D	-li	1A	.	1d	-li	2g]	.
.	.	.	.	.	.	2f#i	.
*	*	*Xlig	*	*	*	*	*
=171	=171	=171	=171	=171	=171	=171	=171
1E-i	fa-	1G	-li	2B-y	.	1g	-li
.	.	.	.	[2e-i	fa-	.	.
=172	=172	=172	=172	=172	=172	=172	=172
1E-i	-cti	1G	fa-	4e-]	.	1g	fa-
.	.	.	.	4d	.	.	.
.	.	.	.	4c	.	.	.
.	.	.	.	4B-y	.	.	.
=173	=173	=173	=173	=173	=173	=173	=173
*lig	*	*	*	*	*	*lig	*
1E-i	su-	1G	-cti	1c	-cti	1g	-cti
!!LO:LB:g=original
=174	=174	=174	=174	=174	=174	=174	=174
[1D	.	[1A	su-	[1d	su-	[1f	.
=175	=175	=175	=175	=175	=175	=175	=175
1D]	.	1A]	.	1d]	.	1f]	.
*Xlig	*	*	*	*	*	*Xlig	*
=176	=176	=176	=176	=176	=176	=176	=176
*lig	*	*	*	*	*	*	*
1G	.	1B-y	.	1e	.	1g	.
=177	=177	=177	=177	=177	=177	=177	=177
[1F	.	[1c	.	[1f	.	[1a	su-
=178	=178	=178	=178	=178	=178	=178	=178
1F]	.	1c]	.	1f]	.	1a]	.
*Xlig	*	*	*	*	*	*	*
=179	=179	=179	=179	=179	=179	=179	=179
1G	.	1B-y	.	1d	.	1g	.
!!LO:PB:g=original
=180	=180	=180	=180	=180	=180	=180	=180
*	*	*lig	*	*	*	*	*
2A	.	2A	.	2c	.	2f	.
[2c	.	2F	.	[2f	.	2a	.
*	*	*Xlig	*	*	*	*	*
=181	=181	=181	=181	=181	=181	=181	=181
*	*	*	*	*	*	*lig	*
2c]	.	1G	.	2f]	.	1g	mus
2B-y	.	.	.	2e	.	.	.
=182	=182	=182	=182	=182	=182	=182	=182
1c	-mus	1F	mus	1f	mus	1a	.
*	*	*	*	*	*	*Xlig	*
=183	=183	=183	=183	=183	=183	=183	=183
1r	.	1r	.	1r	.	1r	.
=184	=184	=184	=184	=184	=184	=184	=184
1B-y	ab-	1G	ab-	1d	ab-	1g	ab-
=185	=185	=185	=185	=185	=185	=185	=185
*lig	*	*lig	*	*	*	*lig	*
1A	-sque	1A	-sque	1c	-sque	1f	-sque
!!LO:LB:g=original
=186	=186	=186	=186	=186	=186	=186	=186
*	*	*	*	*lig	*	*	*
1G	.	1B-y	.	2d	pa-	1g	.
.	.	.	.	2B-y	.	.	.
*	*	*	*	*Xlig	*	*Xlig	*
*Xlig	*	*Xlig	*	*	*	*	*
=187	=187	=187	=187	=187	=187	=187	=187
1F	pa-	1A	pa-	2.c	.	1a	pa-
.	.	.	.	4d	.	.	.
=188	=188	=188	=188	=188	=188	=188	=188
*lig	*	*lig	*	*	*	*	*
2E-i	.	2B-y	.	2e-i	.	2g	.
2F	.	2A	.	2c	.	[2f	.
*Xlig	*	*Xlig	*	*	*	*	*
=189	=189	=189	=189	=189	=189	=189	=189
*	*	*lig	*	*	*	*	*
1C	.	1G	-tre,	1c	-tre,	2f]	.
.	.	.	.	.	.	2e	.
=190	=190	=190	=190	=190	=190	=190	=190
[1c	-tre,	[1F	.	[1A	.	[1f	tre,
=191	=191	=191	=191	=191	=191	=191	=191
1c]	.	1F]	.	1A]	.	1f]	.
*	*	*Xlig	*	*	*	*	*
!!LO:LB:g=original
=192	=192	=192	=192	=192	=192	=192	=192
1r	.	1r	.	1r	.	1r	.
=193	=193	=193	=193	=193	=193	=193	=193
*	*	*lig	*	*lig	*	*	*
*	*	*	*	*	*	*lig	*
1c	-ma-	1F	ma-	1c	ma-	1a	-ma-
=194	=194	=194	=194	=194	=194	=194	=194
1B-y	.	1G	.	1d	.	1b-y	.
*	*	*Xlig	*	*Xlig	*	*Xlig	*
=195	=195	=195	=195	=195	=195	=195	=195
1F	.	1A	.	1f	.	1a	.
=196	=196	=196	=196	=196	=196	=196	=196
*lig	*	*lig	*	*lig	*	*lig	*
2G	.	2B-y	.	2e	.	2g	.
[2F	.	[2c	.	[2f	.	[2a	.
=197	=197	=197	=197	=197	=197	=197	=197
4F]	.	4c]	.	4f]	.	4a]	.
*Xlig	*	*Xlig	*	*Xlig	*	*Xlig	*
4G	.	4B-y	.	4e	.	4g	.
4D	.	4A	.	4d	.	4f	.
4E	.	4G	.	4c	.	4e	.
!!LO:LB:g=original
=198	=198	=198	=198	=198	=198	=198	=198
*	*	*	*	*	*	*lig	*
1D	-tres	1A	-tres	1d	-tres	1f	-tres-
=199	=199	=199	=199	=199	=199	=199	=199
1B-y	no-	1G	no-	1d	no-	1g	-no-
*	*	*	*	*	*	*Xlig	*
=200	=200	=200	=200	=200	=200	=200	=200
[1B-y	stre	[1G	stre	[1d	stre	[1g	stre
=201	=201	=201	=201	=201	=201	=201	=201
1B-]	.	1G]	.	1d]	.	1g]	.
=202	=202	=202	=202	=202	=202	=202	=202
1r	.	1r	.	1r	.	1r	.
=203	=203	=203	=203	=203	=203	=203	=203
*	*	*lig	*	*lig	*	*lig	*
1B-y	-qua-	1G	-qua-	1d	-qua-	1g	-qua-
!!LO:PB:g=original
=204	=204	=204	=204	=204	=204	=204	=204
1F	.	1A	.	1c	.	1f	.
*	*	*Xlig	*	*Xlig	*	*Xlig	*
=205	=205	=205	=205	=205	=205	=205	=205
2G	.	2G	.	2B-y	.	2e-j	.
*	*	*	*	*lig	*	*	*
[2D	.	[2F	.	[2A	.	[2d	.
=206	=206	=206	=206	=206	=206	=206	=206
2D]	.	2F]	.	2A]	.	2d]	.
2E	.	2E	.	[2G	.	[2c	.
=207	=207	=207	=207	=207	=207	=207	=207
*lig	*	*	*	*	*	*	*
2F	.	1D	.	2G]	.	2c]	.
*	*	*	*	*Xlig	*	*	*
2D	.	.	.	2F	.	2Biy	.
*Xlig	*	*	*	*	*	*	*
=208	=208	=208	=208	=208	=208	=208	=208
*lig	*	*	*	*	*	*	*
1E	-si	1C	-si	[1G	si	[1c	si
=209	=209	=209	=209	=209	=209	=209	=209
1G	.	1E	.	1G]	.	1c]	.
*Xlig	*	*	*	*	*	*	*
!!LO:LB:g=original
=210	=210	=210	=210	=210	=210	=210	=210
1A	.	1D	.	1r	.	1f	-vi-
=211	=211	=211	=211	=211	=211	=211	=211
[1B-y	vi-	[1G	vi-	[1d	vi-	[1g	.
=212	=212	=212	=212	=212	=212	=212	=212
1B-]	.	1G]	.	1d]	.	1g]	.
=213	=213	=213	=213	=213	=213	=213	=213
*lig	*	*lig	*	*	*	*	*
1c	.	1F	.	1f	.	1a	.
=214	=214	=214	=214	=214	=214	=214	=214
1B-y	.	1G	.	[1d	.	2.b-y	.
.	.	.	.	.	.	4a	.
*Xlig	*	*Xlig	*	*	*	*	*
=215	=215	=215	=215	=215	=215	=215	=215
1r	.	[1B-y	du-	1d]	.	[1g	-du-
!!LO:LB:g=original
=216	=216	=216	=216	=216	=216	=216	=216
*lig	*	*	*	*lig	*	*	*
2G	du-	2B-]	.	2d	-du-	2g]	.
2A	.	2A	.	2c	.	2f	.
*Xlig	*	*	*	*Xlig	*	*	*
=217	=217	=217	=217	=217	=217	=217	=217
*lig	*	*	*	*	*	*	*
2B-y	.	1G	.	1B-y	.	1e	.
2G	.	.	.	.	.	.	.
*Xlig	*	*	*	*	*	*	*
=218	=218	=218	=218	=218	=218	=218	=218
[1A	e.	[1F	e.	[1c	e.	[1f	e.
=219	=219	=219	=219	=219	=219	=219	=219
1A]	.	1F]	.	1c]	.	1f]	.
=220	=220	=220	=220	=220	=220	=220	=220
1r	.	1r	.	1r	.	1r	.
=221	=221	=221	=221	=221	=221	=221	=221
[1G	le-	[1B-y	le-	[1d	le-	[1d	le-
=222	=222	=222	=222	=222	=222	=222	=222
1G]	.	1B-]	.	1d]	.	1d]	.
!!LO:LB:g=original
=223	=223	=223	=223	=223	=223	=223	=223
1D	-ru-	1A	-ru-	1d	-ru-	1f	-ru-
=224	=224	=224	=224	=224	=224	=224	=224
*lig	*	*lig	*	*lig	*	*lig	*
2E-i	.	2G	.	2c	.	2g	.
2D	.	2F	.	2d	.	[2a	.
*Xlig	*	*Xlig	*	*Xlig	*	*	*
=225	=225	=225	=225	=225	=225	=225	=225
*	*	*	*	*lig	*	*	*
1E-i	-sa-	1G	-sa-	2B-y	.	4a]	.
*	*	*	*	*	*	*Xlig	*
.	.	.	.	.	.	4g	.
.	.	.	.	2c	.	[2g	-sa-
*	*	*	*	*Xlig	*	*	*
=226	=226	=226	=226	=226	=226	=226	=226
1D	.	1A	.	1d	-sa-	2g]	.
.	.	.	.	.	.	2f#i	.
=227	=227	=227	=227	=227	=227	=227	=227
[1d	lem,	[1G	lem,	[1B-y	lem,	[1g	lem,
=228	=228	=228	=228	=228	=228	=228	=228
1d]	.	1G]	.	1B-]	.	1g]	.
!!LO:PB:g=original
=229	=229	=229	=229	=229	=229	=229	=229
1r	.	1r	.	1r	.	1r	.
=230	=230	=230	=230	=230	=230	=230	=230
1B-y	-Ie-	1G	-Ie-	1d	-Ie-	1g	-Ie-
=231	=231	=231	=231	=231	=231	=231	=231
*	*	*lig	*	*	*	*lig	*
1G	-ru-	1G	-ru-	[1d	ru-	1g	-ru-
=232	=232	=232	=232	=232	=232	=232	=232
1D	.	1A	.	1d]	.	1f	.
*	*	*Xlig	*	*	*	*Xlig	*
=233	=233	=233	=233	=233	=233	=233	=233
*lig	*	*	*	*	*	*	*
1G	-sa-	1B-y	.	1e	.	1g	.
=234	=234	=234	=234	=234	=234	=234	=234
[1F	.	[1c	sa-	[1f	sa-	[1a	sa-
=235	=235	=235	=235	=235	=235	=235	=235
1F]	.	1c]	.	1f]	.	1a]	.
*Xlig	*	*	*	*	*	*	*
!!LO:LB:g=original
=236	=236	=236	=236	=236	=236	=236	=236
*	*	*	*	*lig	*	*	*
1G	.	1B-y	.	2d	.	1g	.
.	.	.	.	2B-y	.	.	.
*	*	*	*	*Xlig	*	*	*
=237	=237	=237	=237	=237	=237	=237	=237
*	*	*lig	*	*lig	*	*lig	*
2D	.	2A	.	2d	.	2f	.
[2E-X	.	[2B-y	.	[2e-X	.	[2g	.
=238	=238	=238	=238	=238	=238	=238	=238
4E-]	.	4B-]	.	4e-]	.	4g]	.
*	*	*Xlig	*	*Xlig	*	*Xlig	*
4F	.	4A	.	4d	.	4f	.
4C	.	4G	.	4c	.	4e	.
4D	.	4F	.	4B-y	.	4d	.
=239	=239	=239	=239	=239	=239	=239	=239
1C	.	1G	.	1c	.	1e	.
=240	=240	=240	=240	=240	=240	=240	=240
[1c	lem,	[1F	lem,	[1A	lem,	[1f	lem,
=241	=241	=241	=241	=241	=241	=241	=241
1c]	.	1F]	.	1A]	.	1f]	.
!!LO:LB:g=original
=242	=242	=242	=242	=242	=242	=242	=242
1r	.	1r	.	1r	.	1r	.
=243	=243	=243	=243	=243	=243	=243	=243
*lig	*	*	*	*	*	*lig	*
1c	-con-	1F	-con-	1f	-con-	1a	-con-
=244	=244	=244	=244	=244	=244	=244	=244
1B-y	.	1G	.	2.d	.	1b-y	.
.	.	.	.	4e	.	.	.
*Xlig	*	*	*	*	*	*Xlig	*
=245	=245	=245	=245	=245	=245	=245	=245
*lig	*	*lig	*	*	*	*	*
2c	.	2F	.	2f	.	2a	.
2B-y	.	2G	.	[2d	.	[2g	.
*Xlig	*	*Xlig	*	*	*	*	*
=246	=246	=246	=246	=246	=246	=246	=246
*lig	*	*	*	*	*	*	*
2A	.	1A	.	2d]	.	2g]	.
2c	.	.	.	2c	.	2f#j	.
*Xlig	*	*	*	*	*	*	*
=247	=247	=247	=247	=247	=247	=247	=247
[1B-y	-ver-	[1G	-ver-	[1d	-ver-	[1g	-ver-
=248	=248	=248	=248	=248	=248	=248	=248
2B-]	.	2G]	.	2d]	.	2g]	.
2B-y	-te-	2G	-te-	2d	-te-	2g	-te-
!!LO:LB:g=original
=249	=249	=249	=249	=249	=249	=249	=249
[1G	re	[1G	re	[1d	re	[1g	re
=250	=250	=250	=250	=250	=250	=250	=250
1G]	.	1G]	.	1d]	.	1g]	.
=251	=251	=251	=251	=251	=251	=251	=251
1r	.	1r	.	1r	.	1r	.
=252	=252	=252	=252	=252	=252	=252	=252
1B-y	-ad	1G	-ad	1d	-ad	1g	-ad
=253	=253	=253	=253	=253	=253	=253	=253
[1B-y	Do-	[1G	Do-	[1d	Do-	[1g	Do-
=254	=254	=254	=254	=254	=254	=254	=254
2B-]	.	2G]	.	2d]	.	2g]	.
2B-y	-mi-	2G	-mi-	2d	-mi-	2g	-mi-
=255	=255	=255	=255	=255	=255	=255	=255
1B-y	-num	1G	-num	1d	-num	1g	-num
!!LO:PB:g=original
=256	=256	=256	=256	=256	=256	=256	=256
1r	.	1r	.	1r	.	1r	.
=257	=257	=257	=257	=257	=257	=257	=257
1B-y	De-	1G	De-	1d	De-	[1g	De-
=258	=258	=258	=258	=258	=258	=258	=258
2G	.	2B-y	.	2B-y	.	2g]	.
*	*	*lig	*	*	*	*	*
[2D	.	[2d	.	[2A	.	[2f	.
=259	=259	=259	=259	=259	=259	=259	=259
2D]	.	2d]	.	2A]	.	2f]	.
2E	.	[2c	.	2G	.	2e	.
=260	=260	=260	=260	=260	=260	=260	=260
1G	.	2c]	.	2.B-y	.	1d	.
*	*	*Xlig	*	*	*	*	*
.	.	2Biy	.	.	.	.	.
.	.	.	.	4G	.	.	.
=261	=261	=261	=261	=261	=261	=261	=261
1C	-um	1c	-um	1G	-um	1c	-um
!!LO:LB:g=original
=262	=262	=262	=262	=262	=262	=262	=262
1r	.	1r	.	1r	.	1r	.
=263	=263	=263	=263	=263	=263	=263	=263
[1D	tu-	[1A	tu-	[1d	tu-	[1f	tu-
=264	=264	=264	=264	=264	=264	=264	=264
2D]	.	2A]	.	2d]	.	2f]	.
[2G	.	2B-y	.	2B-y	.	2g	.
=265	=265	=265	=265	=265	=265	=265	=265
*	*	*lig	*	*lig	*	*lig	*
*	*	*	*	*	*edit	*	*
2G]	.	1c	.	1A	-um,	1a	.
2F#j	.	.	.	.	.	.	.
=266	=266	=266	=266	=266	=266	=266	=266
1G	.	1B-y	.	1G	.	1b-y	.
*	*	*Xlig	*	*Xlig	*	*Xlig	*
=267	=267	=267	=267	=267	=267	=267	=267
*	*	*lig	*	*	*	*	*
2F	.	1c	.	2r	.	2a	.
2C	.	.	.	[2g	tu-	[2cc	.
*	*	*	*	*	*Xedit	*	*
=268	=268	=268	=268	=268	=268	=268	=268
1G	.	1d	.	1g]	.	2cc]	.
.	.	.	.	.	.	2b-y	.
*	*	*Xlig	*	*	*	*	*
!!LO:LB:g=original
=269	=269	=269	=269	=269	=269	=269	=269
2C	.	2c	.	1e-X	.	2a	.
[2E-X	.	[2B-y	.	.	.	[2g	.
=270	=270	=270	=270	=270	=270	=270	=270
2E-]	.	2B-]	.	2e-i	.	2g]	.
2F	.	2A	.	2d	.	2f	.
=271	=271	=271	=271	=271	=271	=271	=271
1C	.	1G	.	1c	.	1e	.
=272	=272	=272	=272	=272	=272	=272	=272
*lig	*	*lig	*	*	*	*lig	*
2F	.	2A	.	2c	.	2f	.
[2E-i	.	[2B-y	.	[2e-i	.	[2g	.
=273	=273	=273	=273	=273	=273	=273	=273
4E-]	.	4B-]	.	4e-]	.	4g]	.
*Xlig	*	*Xlig	*	*	*	*Xlig	*
4F	.	4A	.	4d	.	4f	.
4C	.	4G	.	4c	.	4e	.
4D	.	4F	.	4B-y	.	4d	.
=274	=274	=274	=274	=274	=274	=274	=274
1C	.	1G	.	1c	.	1e	.
=275	=275	=275	=275	=275	=275	=275	=275
1cl	um.	1Fl	um.	1cl	um.	1fl	um.
==	==	==	==	==	==	==	==
*-	*-	*-	*-	*-	*-	*-	*-
!!!system-decoration: [*]
!!!RDF**kern: j = editorial accidental, optional, paren up
!!!RDF**kern: i = editorial accidental
!!!RDF**kern: l = terminal breve
!!!PTL: Gaspar van Weerbeke: Collected Works. V. Settings of Liturgical Texts, Songs, and Instrumental Works
!!!PPR: American Institute of Musicology
!!!PC#: Corpus Mensurabilis Musicae 106/V
!!!PDT: 2020
!!!PED: Pavanello, Agnese
!!!YEC: Copyright 2018, Pavanello, Agnese
!!!YEM: CC-BY-NC 4.0 (https://creativecommons.org/licenses/by-nc/4.0/legalcode)
!!!EED: Zybina, Karina
!!!EEV: 2021/08/17
